icons/svg/icons8/boots.svg

<svg width="26" height="26" viewBox="0 0 26 26" fill="none" xmlns="http://www.w3.org/2000/svg">
<path d="M0.129761 20.714L0.280761 24.61C0.280761 24.61 0.280761 24.891 0.639761 24.891C0.870761 24.891 1.79576 24.923 1.79576 24.923C1.79576 24.923 1.99676 24.895 1.99676 24.779C1.99776 24.665 1.99976 23.719 1.99976 23.719C1.99976 23.719 1.98276 23.419 2.49976 23.453C2.96876 23.484 3.01576 23.797 3.01576 23.797C3.01576 23.797 3.04076 24.45 3.04076 24.594C3.04076 24.738 2.98276 24.938 3.26976 24.938C3.55676 24.938 5.68476 24.936 5.68476 24.936C5.68476 24.936 5.94276 24.879 5.94276 24.707C5.94276 24.536 5.94276 22.625 5.94276 22.625C5.94276 22.625 5.85676 22.31 6.11476 22.396C6.37276 22.482 10.8118 23.38 10.8118 23.38C10.8118 23.38 11.0428 23.374 11.0618 23.595C11.0798 23.803 11.0458 24.273 11.0458 24.273C11.0458 24.273 11.0988 24.411 11.2958 24.455C11.5768 24.518 12.5768 24.627 12.5768 24.627C12.5768 24.627 12.8938 24.601 12.8938 24.486C12.8938 24.371 12.9798 23.999 12.9798 23.999C12.9798 23.999 12.9618 23.864 13.2488 23.893C13.5358 23.922 13.8238 23.888 13.8238 23.888C13.8238 23.888 14.0538 23.946 14.0538 24.061C14.0538 24.175 14.1398 24.606 14.1398 24.606C14.1398 24.606 14.1398 24.872 14.4458 24.851C14.5638 24.843 15.7648 24.909 15.7648 24.909C15.7648 24.909 15.9208 24.893 15.9368 24.69C15.9488 24.534 15.9368 24.22 15.9368 24.22C15.9368 24.22 15.9778 23.971 16.1248 23.971C16.4058 23.971 17.6188 23.95 17.7658 23.966C17.9128 23.982 18.0468 24.107 18.0468 24.107L18.1018 24.784C18.1018 24.784 18.1978 24.896 18.3128 24.925C18.4278 24.954 19.5788 24.831 19.5788 24.831C19.5788 24.831 19.7548 24.528 19.7248 24.472C19.6978 24.414 19.9838 23.812 19.9838 23.812C19.9838 23.812 20.0118 23.754 20.1568 23.726C20.2998 23.698 21.0218 23.525 21.0218 23.525C21.0218 23.525 21.1938 23.555 21.2508 23.612C21.3098 23.67 21.5958 24.129 21.5958 24.129C21.5958 24.129 21.5958 24.272 21.7098 24.243C21.8248 24.215 22.8568 24.042 22.8568 24.042L23.0298 23.813L23.0868 23.211C23.0868 23.211 23.1148 22.896 23.2018 22.896C23.2878 22.896 23.9748 22.609 23.9748 22.609L24.2618 22.637L24.5768 23.154C24.5768 23.154 24.6908 23.212 24.7768 23.182C24.8628 23.154 25.7808 22.723 25.7808 22.723C25.7808 22.723 25.8958 22.465 25.8668 22.379C25.8388 22.293 25.6238 20.889 25.6238 20.889C25.6238 20.889 25.4238 20.718 25.3368 20.832C25.2508 20.946 22.3398 22.481 19.2578 22.811C16.2288 23.136 13.9378 23.657 7.70076 21.764C6.14676 21.293 1.33376 20.947 0.488761 20.502C0.147761 20.318 0.0867607 20.526 0.129761 20.714Z" fill="#333333"/>
<path d="M24.7771 17.397C24.1751 16.565 23.0481 16.088 22.1391 16.121C20.5331 16.179 20.5511 16.916 19.4151 16.565C18.7141 16.349 18.3941 16.125 18.3941 16.125C18.3941 16.125 18.1211 18.606 16.2961 19.266C16.7871 18.394 16.7431 17.441 16.8591 16.532C17.0311 15.173 17.0151 14.235 15.5621 13.969C14.5511 13.784 13.8321 13.706 12.7961 13.016C11.7601 12.326 11.3081 11.333 11.0411 9.15401C10.7261 6.57301 10.9841 2.09901 10.8951 1.44601C10.8071 0.792014 9.71205 0.114014 8.43105 0.114014C7.15005 0.114014 6.11505 0.903014 4.98105 1.15001C3.84805 1.39601 3.93005 1.12601 2.72105 1.37301C2.03105 1.51401 2.04705 2.07801 2.04705 3.93401C2.04705 4.73301 2.09505 8.98401 2.03505 9.94001C2.00005 10.486 1.88205 11.515 1.70305 12.064C1.70305 12.064 6.10905 13.97 7.65605 17.627C5.12505 14.533 1.50005 13.502 1.12505 13.486C0.484051 14.767 0.102051 16.251 0.102051 17.752C0.102051 18.854 0.348051 19.329 0.348051 19.329C0.348051 19.329 0.939051 19.658 3.18305 19.993C4.18205 20.142 6.33505 20.283 7.83005 20.736C12.5071 22.149 15.3641 22.098 19.0281 21.744C23.1161 21.348 25.3601 19.716 25.3601 19.716C25.3601 19.716 25.4041 18.262 24.7771 17.397ZM9.08805 1.80901C9.44505 1.80901 9.73505 2.09801 9.73505 2.45501C9.73505 2.81201 9.44505 3.10101 9.08805 3.10101C8.73105 3.10101 8.44105 2.81301 8.44105 2.45501C8.44105 2.09701 8.73005 1.80901 9.08805 1.80901ZM9.04505 4.64401C9.40205 4.64401 9.69205 4.93301 9.69205 5.29001C9.69205 5.64701 9.40205 5.93601 9.04505 5.93601C8.68805 5.93601 8.39805 5.64701 8.39805 5.29001C8.39805 4.93301 8.68805 4.64401 9.04505 4.64401ZM8.48405 7.95301C8.48405 7.59601 8.77405 7.30701 9.13105 7.30701C9.48805 7.30701 9.77805 7.59601 9.77805 7.95301C9.77805 8.31001 9.48805 8.60001 9.13105 8.60001C8.77405 8.60001 8.48405 8.31101 8.48405 7.95301ZM9.51605 11.549C9.15905 11.549 8.86905 11.26 8.86905 10.903C8.86905 10.546 9.15905 10.257 9.51605 10.257C9.87305 10.257 10.1631 10.546 10.1631 10.903C10.1631 11.26 9.87305 11.549 9.51605 11.549ZM10.8061 13.884C10.4491 13.884 10.1591 13.595 10.1591 13.238C10.1591 12.881 10.4491 12.592 10.8061 12.592C11.1631 12.592 11.4531 12.881 11.4531 13.238C11.4531 13.595 11.1641 13.884 10.8061 13.884ZM12.8281 15.346C12.4711 15.346 12.1811 15.057 12.1811 14.7C12.1811 14.343 12.4711 14.054 12.8281 14.054C13.1851 14.054 13.4751 14.343 13.4751 14.7C13.4751 15.057 13.1861 15.346 12.8281 15.346ZM15.3591 16.16C15.0021 16.16 14.7131 15.871 14.7131 15.514C14.7131 15.157 15.0021 14.868 15.3591 14.868C15.7161 14.868 16.0061 15.157 16.0061 15.514C16.0061 15.871 15.7171 16.16 15.3591 16.16Z" fill="#333333"/>
</svg>

<?xml version="1.0" encoding="utf-8"?>
<!-- Generator: Adobe Illustrator 15.0.0, SVG Export Plug-In . SVG Version: 6.00 Build 0)  -->
<!DOCTYPE svg PUBLIC "-//W3C//DTD SVG 1.1//EN" "http://www.w3.org/Graphics/SVG/1.1/DTD/svg11.dtd">
<svg version="1.1" id="Layer_1" xmlns="http://www.w3.org/2000/svg" xmlns:xlink="http://www.w3.org/1999/xlink" x="0px" y="0px"
	 width="26px" height="26px" viewBox="0 0 26 26" enable-background="new 0 0 26 26" xml:space="preserve">
<rect fill="none" width="26" height="26"/>
<path fill="#333333" d="M0.13,20.714l0.151,3.896c0,0,0,0.281,0.359,0.281c0.231,0,1.156,0.032,1.156,0.032s0.201-0.028,0.201-0.144
	C1.998,24.665,2,23.719,2,23.719s-0.017-0.3,0.5-0.266c0.469,0.031,0.516,0.344,0.516,0.344s0.025,0.653,0.025,0.797
	s-0.058,0.344,0.229,0.344c0.287,0,2.415-0.002,2.415-0.002s0.258-0.057,0.258-0.229c0-0.171,0-2.082,0-2.082
	s-0.086-0.315,0.172-0.229c0.258,0.086,4.697,0.984,4.697,0.984s0.231-0.006,0.25,0.215c0.018,0.208-0.016,0.678-0.016,0.678
	s0.053,0.138,0.25,0.182c0.281,0.063,1.281,0.172,1.281,0.172s0.317-0.026,0.317-0.141c0-0.115,0.086-0.487,0.086-0.487
	s-0.018-0.135,0.269-0.106c0.287,0.029,0.575-0.005,0.575-0.005s0.23,0.058,0.23,0.173c0,0.114,0.086,0.545,0.086,0.545
	s0,0.266,0.306,0.245c0.118-0.008,1.319,0.058,1.319,0.058s0.156-0.016,0.172-0.219c0.012-0.156,0-0.47,0-0.47
	s0.041-0.249,0.188-0.249c0.281,0,1.494-0.021,1.641-0.005s0.281,0.141,0.281,0.141l0.055,0.677c0,0,0.096,0.112,0.211,0.141
	c0.115,0.029,1.266-0.094,1.266-0.094s0.176-0.303,0.146-0.359c-0.027-0.058,0.259-0.66,0.259-0.66s0.028-0.058,0.173-0.086
	c0.143-0.028,0.865-0.201,0.865-0.201s0.172,0.03,0.229,0.087c0.059,0.058,0.345,0.517,0.345,0.517s0,0.143,0.114,0.114
	c0.115-0.028,1.147-0.201,1.147-0.201l0.173-0.229l0.057-0.602c0,0,0.028-0.315,0.115-0.315c0.086,0,0.773-0.287,0.773-0.287
	l0.287,0.028l0.315,0.517c0,0,0.114,0.058,0.2,0.028c0.086-0.028,1.004-0.459,1.004-0.459s0.115-0.258,0.086-0.344
	c-0.028-0.086-0.243-1.49-0.243-1.49s-0.2-0.171-0.287-0.057c-0.086,0.114-2.997,1.649-6.079,1.979
	c-3.029,0.325-5.32,0.846-11.557-1.047c-1.554-0.471-6.367-0.817-7.212-1.262C0.148,20.318,0.087,20.526,0.13,20.714z"/>
<path fill="#333333" d="M24.777,17.397c-0.602-0.832-1.729-1.309-2.638-1.276c-1.606,0.058-1.588,0.795-2.724,0.444
	c-0.701-0.216-1.021-0.44-1.021-0.44s-0.273,2.481-2.098,3.141c0.491-0.872,0.447-1.825,0.563-2.734
	c0.172-1.359,0.156-2.297-1.297-2.563c-1.011-0.185-1.73-0.263-2.766-0.953s-1.488-1.683-1.755-3.862
	c-0.315-2.581-0.057-7.055-0.146-7.708c-0.088-0.654-1.183-1.332-2.464-1.332c-1.281,0-2.316,0.789-3.45,1.036
	C3.848,1.396,3.93,1.126,2.721,1.373C2.031,1.514,2.047,2.078,2.047,3.934c0,0.799,0.048,5.05-0.012,6.006
	C2,10.486,1.882,11.515,1.703,12.064c0,0,4.406,1.906,5.953,5.563c-2.531-3.094-6.156-4.125-6.531-4.141
	c-0.641,1.281-1.023,2.765-1.023,4.266c0,1.102,0.246,1.577,0.246,1.577s0.591,0.329,2.835,0.664
	c0.999,0.149,3.152,0.29,4.647,0.743c4.677,1.413,7.534,1.362,11.198,1.008c4.088-0.396,6.332-2.028,6.332-2.028
	S25.404,18.262,24.777,17.397z M9.088,1.809c0.357,0,0.647,0.289,0.647,0.646s-0.29,0.646-0.647,0.646S8.441,2.813,8.441,2.455
	S8.73,1.809,9.088,1.809z M9.045,4.644c0.357,0,0.647,0.289,0.647,0.646s-0.29,0.646-0.647,0.646S8.398,5.647,8.398,5.29
	S8.688,4.644,9.045,4.644z M8.484,7.953c0-0.357,0.29-0.646,0.647-0.646s0.647,0.289,0.647,0.646S9.488,8.6,9.131,8.6
	S8.484,8.311,8.484,7.953z M9.516,11.549c-0.357,0-0.647-0.289-0.647-0.646s0.29-0.646,0.647-0.646s0.647,0.289,0.647,0.646
	S9.873,11.549,9.516,11.549z M10.806,13.884c-0.357,0-0.647-0.289-0.647-0.646s0.29-0.646,0.647-0.646s0.647,0.289,0.647,0.646
	S11.164,13.884,10.806,13.884z M12.828,15.346c-0.357,0-0.647-0.289-0.647-0.646s0.29-0.646,0.647-0.646s0.647,0.289,0.647,0.646
	S13.186,15.346,12.828,15.346z M15.359,16.16c-0.357,0-0.646-0.289-0.646-0.646s0.289-0.646,0.646-0.646s0.647,0.289,0.647,0.646
	S15.717,16.16,15.359,16.16z"/>
</svg>
